!!!OTL: Entfuehrte Graserin Es wollt Gott's Graeserin grasene gehn,
!!!ARE: Europa, Mitteleuropa, Lothringen, Rechicourt ( Kr. Saarburg )
!!!SCT: D0042
!!!YEM: Copyright 1995, estate of Helmut Schaffrath.
**kern
*ICvox
*Ivox
*M2/4
*k[b-]
*F:
{8f
=1
4f
4f
=2
8.cc
16cc
8cc
8dd
=3
4cc
8b-
8a
=4
[2g
=5
4g]
8r}
{8cc
=6
8cc
8b-
8a
8g
=7
4f
4g
=8
8f
8e
4d
=9
[2c
=10
4c]
8r}
{8c
=11
4f
4f
=12
4g
4cc
=13
4a
4g
=14
2a
=15
4a
4g
=16
[2f
=17
4f]
8r}
==
!!!AGN: Ballade
!! Verzierungen; Inzipit = Transposition zum Lied
!!!ONB: ESAC (Essen Associative Code) Database: DVA
!!!AMT: simple duple
!!!AIN: vox
!!!EED: Helmut Schaffrath
!!!EEV: 1.0
*-
